X: 3
T: Woodlark
M:4/4
L:1/8
Z:Alf Warnock - alf0@rogers.com
K:F
fg|"F"agfa "C"gfeg|"F"f2c2 c2e2|"Bb"g2a2 b2a2|"C"gfed c2fg|
"F"agfa "C"gfeg|"F"f2c2 fac2|"Bb"B2A2 "C"G3F|"F"F6:|
cB|"F"AFAc AFAc|"Gm"BGBd BGBd|"F"Acde "Bb"fgag|"C"e4 c2ag|
"F"fafc fafc|"C"egec egec|"F"faga "C"bag3/2f/2|"F"f6:|
